!!!!SEGMENT: d-b--slg-bohn-ms-mus-111--013_jarzebski-adam--canzoni-e-concerti-13-corona-aurea.krn
!!!cenid: 16xx:1786
!!!COM: Jarzębski, Adam
!!!COM-rismID: pe30017782
!!!CDT:
!!!CNT:
!!!GTL: Canzoni e Concerti
!!!OTL: 13. Corona Aurea
!!!PDT: 1627
!!!AGN:
!!!SMS-siglum: D-B
!!!SMS-shelfmark: Slg Bohn Ms.mus. 111
!!!SMS-shelfwork: 013 G
!!!SMS-variant:
!!!SMS-altvar:
!!!NIFC-rismSourceID: 1001062014
!!!NIFC-rismChildID: 1001062014
!!!NIFC-islandoraID:
!!!URL-pdf-islandora:
!!!URL-scan: https://digital.staatsbibliothek-berlin.de/werkansicht/?PPN=PPN1049147219
!!!ONB-nifc: UWAGA: Prima vox: s. 23-25, Seconda vox: s. 83-85, Basso continuo: s. 172-173. Uwaga: proszę wpisywać partie tylko występujące w danym koncercie i nazywać partie wg określeń podawanych przy danym utworze. Kody instr. dla humdrumowców podane zostaną na forum.
!!!AIN: 2 soprn
!!!key: F
**kern	**kern	**kern
*part3	*part2	*part1
*staff3	*staff2	*staff1
*I"Baſso Continúo.	*I"[Canto]	*I"Canto.
*I'bc	*I'S 2	*I'S 1
*	*ICvox	*ICvox
*	*Isoprn	*Isoprn
*clefF4	*clefG2	*clefG2
*k[b-]	*k[b-]	*k[b-]
*F:	*F:	*F:
*M2/1	*M2/1	*M2/1
*met(C|)	*met(C|)	*met(C|)
=1-	=1-	=1-
!!LO:TX:t=P:problem: all\right or middle	!	!
!LO:TX:b:t=Corona aúrea.	!LO:TX:b:t=Corona aúrea.	!LO:TX:a:t=Corona Aúrea.
1C	00r	1cc
*	*	*2\right
0F	.	[2cc\
!	!	!LO:TX:t=P:problem:mixed beam
.	.	16cc\LL]
.	.	16f/
.	.	16g/
.	.	16a/JJ
.	.	16b-\LL
.	.	16cc\
.	.	16dd\
!	!	!LO:TX:t=P:problem:kreska pseudotaktowa
.	.	16ee\JJ
=2-	=2-	=2-
.	.	[2ff\
.	.	8.ff\L]
.	.	16gg\Jk
.	.	8.ee-Xi\L
!	!	!LO:TX:t=P:problem:kreska pseudotaktowa
.	.	16ff\Jk
!LO:TX:t=P:problem:kreska pseudotaktowa	!	!
1B-	.	4dd\
.	.	4cc\
!	!	!LO:TX:t=P:problem:kreska pseudotaktowa
.	.	[2dd\
=3-	=3-	=3-
*2\right	*	*
2B-\	0r	8dd\L]
.	.	16cc\L
.	.	16b-\JJ
.	.	8a/L
.	.	8b-/J
2A\	.	2cc\
2G\	.	4.b-/
.	.	16cc\LL
.	.	16dd\JJ
*	*	*custos:g
!	!	!LO:LB:g=original
2G\	.	8.g/L
.	.	16a/Jk
.	.	8.b-/L
.	.	16cc/Jk
=4-	=4-	=4-
1F	1cc	1a
*	*2\right	*
0F	[2cc\	1r
!	!LO:TX:t=P:problem:mixed beam	!
.	16cc\LL]	.
.	16f/	.
.	16g/	.
.	16a/JJ	.
.	16b-\LL	.
.	16cc\	.
.	16dd\	.
!	!LO:TX:t=P:problem:kreska pseudotaktowa	!
.	16ee\JJ	.
=5-	=5-	=5-
.	[2ff\	00r
.	8.ff\L]	.
.	16gg\Jk	.
.	8.ee-Xi\L	.
!	!LO:TX:t=P:problem:kreska pseudotaktowa	!
.	16ff\Jk	.
!LO:TX:t=P:problem:kreska pseudotaktowa	!	!
1B-	4dd\	.
.	4cc\	.
!	!LO:TX:t=P:problem:kreska pseudotaktowa	!
.	[2dd\	.
=6-	=6-	=6-
2B-\	8dd\L]	.
.	16cc\L	.
.	16b-\JJ	.
.	8a/L	.
.	8b-/J	.
!	!LO:TX:t=P:problem:kreska pseudotaktowa	!
!	!LO:TX:t=P:problem:zamazane znaki	!
2A\	2cc\	.
*	*custos:b-	*
!	!LO:LB:g=original	!
2G\	4.b-/	.
.	16cc\LL	.
.	16dd\JJ	.
2G\	8.g/	.
.	16g/KL	.
.	8.b-/	.
!	!LO:TX:t=P:problem:kreska pseudotaktowa	!
.	16cc/Jk	.
=7-	=7-	=7-
1F	2a/	4r
.	.	8f/L
.	.	8g/
.	8f/L	8a/
.	8g/	8b-/
.	8a/	8cc/
!	!LO:TX:t=P:problem:kreska pseudotaktowa	!LO:TX:t=P:problem:kreska pseudotaktowa
.	8b-/J	8dd/J
!LO:TX:t=P:problem:kreska pseudotaktowa	!	!
1C	8cc\L	8eeny\L
.	8dd\	8ff\
.	8eeny\	8gg\
.	8ff\J	8aa\J
.	8ee\	8gg\L
.	4ff\	8aa\J
!	!	!LO:TX:t=P:problem:kreska pseudotaktowa
.	.	4gg\
!	!LO:TX:t=P:problem:kreska pseudotaktowa	!
.	8ee\	.
=8-	=8-	=8-
2F\	4.ff\	4ff\
.	.	8aa\L
.	8ee\	8gg\J
1BB-	4.dd\	4.ff\
!	!LO:TX:t=P:problem:kreska pseudotaktowa	!
.	8cc\	8ee\
.	8b-/L	8dd\L
.	8a/J	8cc\J
.	2b-/	2dd\
2C/	.	.
.	8a/L	8.cc\L
!	!LO:TX:t=P:problem:kreska pseudotaktowa	!
.	8g/J	.
!	!	!LO:TX:t=P:problem:kreska pseudotaktowa
.	.	16b-\Jk
*	*	*custos:a
!	!	!LO:LB:g=original
=9-	=9-	=9-
4D/	8.f/L	2a/
.	16g/Jk	.
4C/	8.e/L	.
.	16f/Jk	.
!	!LO:TX:t=P:problem:kreska pseudotaktowa	!
4BB-/	2d/	4dd\
4C/	.	4ee\
*custos:D	*	*
!LO:LB:g=original	!	!
4D/	1r	4ff\
4E\	.	4gg\
!LO:TX:t=P:problem:kreska pseudotaktowa	!	!
2F\	.	4aa\
.	.	8.gg\L
.	.	16ff\Jk
=10-	=10-	=10-
1C	16r	2gg\
.	16g/LL	.
.	16a/	.
.	16b-/JJ	.
.	16cc\LL	.
.	16dd\	.
.	16ee\	.
.	16ff\JJ	.
.	8gg\L	2r
.	8dd\J	.
.	8gg\L	.
!	!LO:TX:t=P:problem:kreska pseudotaktowa	!
.	8ff\J	.
0C	2ee\	16r
.	.	16g/LL
.	.	16a/
.	.	16b-/JJ
.	.	16cc\LL
.	.	16dd\
.	.	16ee\
.	.	16ff\JJ
.	2r	8gg\L
.	.	8dd\
.	.	8gg\
!	!	!LO:TX:t=P:problem:kreska pseudotaktowa
.	.	8ff\J
=11-	=11-	=11-
.	16r	2ee\
.	16c/LL	.
.	16d/	.
.	16e/JJ	.
.	16f/LL	.
.	16g/	.
.	16a/	.
.	16b-/JJ	.
.	8cc/L	2r
.	8g/J	.
.	8cc/L	.
!	!LO:TX:t=P:problem:kreska pseudotaktowa	!
.	8b-/J	.
!LO:TX:t=P:problem:kreska pseudotaktowa	!	!
1F	2a/	16r
.	.	16c/LL
.	.	16d/
.	.	16e/
.	.	16f/
.	.	16g/
.	.	16a/
.	.	16b-/JJ
*	*	*custos:cc
!	!	!LO:LB:g=original
.	2r	8cc\L
.	.	8g\J
.	.	8cc\L
!	!	!LO:TX:t=P:problem:kreska pseudotaktowa
.	.	8b-\J
=12-	=12-	=12-
2F\	16r	2a/
.	16cc/LL	.
.	16a/	.
.	16b-/JJ	.
.	16cc\LL	.
.	16dd\	.
.	16ee\	.
.	16ff\JJ	.
*	*custos:gg	*
!	!LO:LB:g=original	!
2E\	8gg\L	2r
.	8ee\J	.
.	8aa\L	.
!	!LO:TX:t=P:problem:kreska pseudotaktowa	!
.	8gg\J	.
2D/	2ff\	16r
.	.	16f/LL
.	.	16g/
.	.	16a/JJ
.	.	16b-\LL
.	.	16cc\
.	.	16dd\
.	.	16ee\JJ
!LO:TX:t=P:problem:kreska pseudotaktowa	!	!
2D/	2r	8ff\L
.	.	8dd\
.	.	8gg\
!	!	!LO:TX:t=P:problem:kreska pseudotaktowa
.	.	8ff\J
=13-	=13-	=13-
1C	16r	2ee\
.	16c/LL	.
.	16d/	.
.	16e/JJ	.
.	16f/LL	.
.	16g/	.
.	16a/	.
.	16b-/JJ	.
.	8cc\L	2r
.	8a\J	.
.	8dd\L	.
!	!LO:TX:t=P:problem:kreska pseudotaktowa	!
.	8cc\J	.
!LO:TX:t=P:problem:kreska pseudotaktowa	!	!
!	!LO:N:acc=#	!
1G	2bn/	16r
.	.	16g/LL
.	.	16a/
!	!	!LO:SIC:s=16bn/
.	.	16b-/JJ
.	.	16cc\LL
.	.	16dd\
.	.	16ee\
.	.	16ff\JJ
*	*	*custos:gg
!	!LO:TX:t=P:problem:kreska pseudotaktowa	!LO:LB:g=original
.	2r	8gg\L
.	.	8dd\
.	.	8gg\
!	!	!LO:TX:t=P:problem:kreska pseudotaktowa
.	.	8ff\J
=14-	=14-	=14-
2C/	16r	2ee\
.	16c/LL	.
.	16d/	.
.	16e/JJ	.
.	16f/LL	.
.	16g/	.
.	16a/	.
.	16b-y/JJ	.
1F	8cc/L	2r
.	8a/J	.
.	8cc/L	.
!	!LO:TX:t=P:problem:kreska pseudotaktowa	!
.	8b-/J	.
.	2a/	4r
.	.	4aa\
!LO:TX:t=P:problem:kreska pseudotaktowa	!	!
2G\	4r	8gg\L
.	.	8aa\
.	4dd\	8ff\
!	!	!LO:TX:t=P:problem:kreska pseudotaktowa
.	.	8gg\J
*	*custos:cc	*
!	!LO:LB:g=original	!
=15-	=15-	=15-
4A\	8cc\L	2ee\
.	8dd\	.
4G\	8b-\	.
.	8cc\J	.
!	!LO:TX:t=P:problem:kreska pseudotaktowa	!
4F\	2a/	8r
.	.	8aa\
4G\	.	16gg\LL
.	.	16aa\
.	.	16ff\
!	!	!LO:TX:t=P:problem:kreska pseudotaktowa
.	.	16gg\JJ
4A\	8r	2ee\
.	8aa\	.
4B-\	16gg\LL	.
.	16aa\	.
.	16ff\	.
.	16gg\JJ	.
!	!LO:TX:t=P:problem:kreska pseudotaktowa	!
2c\	2ee\	8r
.	.	8gg\
.	.	16ff\LL
.	.	16gg\
.	.	16ee\
!	!	!LO:TX:t=P:problem:kreska pseudotaktowa
.	.	16ff\JJ
*	*	*custos:dd
!	!	!LO:LB:g=original
=16-	=16-	=16-
!LO:TX:t=P:problem:kreska pseudotaktowa	!	!
0G	8r	2dd\
.	8gg\	.
.	16ff\LL	.
.	16gg\	.
.	16ee\	.
.	16ff\JJ	.
!	!LO:TX:t=P:problem:kreska pseudotaktowa	!
.	2dd\	8r
.	.	8gg\
.	.	16ff\LL
.	.	16gg\
.	.	16ee\
!	!	!LO:TX:t=P:problem:kreska pseudotaktowa
.	.	16ff\JJ
.	8r	2dd\
.	8gg\	.
.	16ff\LL	.
.	16gg\	.
.	16ee\	.
.	16ff\JJ	.
!	!LO:TX:t=P:problem:kreska pseudotaktowa	!
.	2dd\	8r
.	.	8gg\
.	.	16gg\LL
.	.	16aa\
.	.	16ff\
!	!	!LO:TX:t=P:problem:kreska pseudotaktowa
.	.	16gg\JJ
=17-	=17-	=17-
2C/	8r	8ee\L
.	8gg\	8ee\J
.	16gg\LL	16ee\LL
.	16aa\	16ff\
.	16ff\	16dd\
.	16gg\	16ee\JJ
2C/	16ee\	16cc\LL
.	16ff\	16dd\
.	16dd\	16b-\
.	16ee\	16cc\JJ
.	16cc\	16a/LL
.	16dd\	16b-/
.	16b-\	16g/
!	!	!LO:TX:t=P:problem:kreska pseudotaktowa
.	16cc\JJ	16a/JJ
*	*custos:a	*custos:f
!	!LO:LB:g=original	!LO:LB:g=original
2F\	2a/	8f/L
.	.	8aa\
.	.	8aa\
.	.	8aa\J
!LO:TX:t=P:problem:kreska pseudotaktowa	!	!
2E\	2r	16gg\LL
.	.	16aa\
.	.	16ff\
.	.	16gg\JJ
.	.	16ee\LL
.	.	16ff\
.	.	16gg\
.	.	16ee\JJ
=18-	=18-	=18-
1D	8r	2ff\
.	8aa\L	.
.	8aa\	.
.	8aa\J	.
.	16ff\LL	2r
.	16gg\	.
.	16ee\	.
.	16ff\JJ	.
.	16dd\LL	.
.	16ee\	.
.	16ff\	.
!	!LO:TX:t=P:problem:kreska pseudotaktowa	!
.	16gg\JJ	.
!LO:TX:t=P:problem:kreska pseudotaktowa	!	!
1C	8ee\L	8r
.	8ee\	8gg\L
.	8ee\	8gg\
.	8ee\J	8gg\J
.	16ee\LL	16gg\LL
.	16ff\	16aa\
.	16dd\	16ff\
.	16ee\	16gg\JJ
.	16cc\	16ee\LL
.	16dd\	16ff\
.	16ee\	16gg\
!	!LO:TX:t=P:problem:kreska pseudotaktowa	!
.	16cc\JJ	16ee\JJ
*custos:F	*	*
!LO:LB:g=original	!	!
=19-	=19-	=19-
!	!	!LO:TX:b:t=Verte
2.F\	2a/	1ff
.	4r	.
!	!LO:TX:t=P:problem:kreska pseudotaktowa	!
4E\	4a/	.
*	*	*custos:ee
!	!	!LO:PB:g=original
2D/	8.b-/	2r
.	16cc\	.
.	16b-\LL	.
.	16cc\	.
.	16dd\	.
.	16b-\JJ	.
!LO:TX:t=P:problem:kreska pseudotaktowa	!	!
2C/	8.cc\L	4r
.	16dd\Jk	.
!	!	!LO:TX:t=P:problem:kreska pseudotaktowa
.	16cc\LL	4ee\
.	16dd\	.
.	16ee\	.
!	!LO:TX:t=P:problem:kreska pseudotaktowa	!
.	16cc\JJ	.
=20-	=20-	=20-
1BB-	2dd\	8.ff\L
.	.	16gg\Jk
.	.	16ff\LL
.	.	16gg\
.	.	16aa\
.	.	16ff\JJ
.	4cc\	8.gg\L
.	.	16aa\Jk
.	4b-/	16gg\LL
.	.	16aa\
.	.	16bb-\
!	!	!LO:TX:t=P:problem:kreska pseudotaktowa
.	.	16gg\JJ
2AA/	1cc	2aa\
!LO:TX:t=P:problem:kreska pseudotaktowa	!	!
2FF/	.	4r
!	!	!LO:TX:t=P:problem:kreska pseudotaktowa
.	.	4a/
=21-	=21-	=21-
2GG/	00r	16b-\LL
.	.	16cc\
.	.	16b-\
.	.	16cc\JJ
.	.	16b-\LL
.	.	16cc\
.	.	16dd\
.	.	16b-\JJ
2AA/	.	16cc\LL
.	.	16dd\
.	.	16cc\
.	.	16dd\JJ
.	.	16cc\LL
.	.	16dd\
.	.	16ee\
!	!	!LO:TX:t=P:problem:kreska pseudotaktowa
.	.	16cc\JJ
*	*	*custos:dd
!LO:TX:t=P:problem:kreska pseudotaktowa	!	!LO:LB:g=original
1BB-	.	8.dd\L
.	.	16ee\Jk
.	.	8.ff\L
.	.	16gg\Jk
.	.	8ff\
.	.	4ee\
!	!	!LO:TX:t=P:problem:kreska pseudotaktowa
.	.	8dd\
=22-	=22-	=22-
1AA	.	[2cc\
!	!	!LO:TX:t=P:problem:mixed beam
.	.	16cc\LL]
.	.	16f/
.	.	16g/
.	.	16a/JJ
.	.	16b-\LL
.	.	16cc\
.	.	16dd\
!	!	!LO:TX:t=P:problem:kreska pseudotaktowa
.	.	16ee\JJ
2.D/	.	[2ff\
.	.	8ff\L]
.	.	8gg\
!LO:TX:t=P:problem:kreska pseudotaktowa	!	!
4C/	.	8ee\
!	!	!LO:TX:t=P:problem:kreska pseudotaktowa
.	.	8ff\J
=23-	=23-	=23-
2BB-/	0r	16dd\LL
.	.	16ee-X\
.	.	16dd\
.	.	16ee-\JJ
.	.	16b-\LL
.	.	16cc\
.	.	16dd\
.	.	16ee-Xi\JJ
2AA/	.	16cc\LL
.	.	16dd\
.	.	16cc\
.	.	16dd\JJ
*	*	*custos:a
!	!	!LO:LB:g=original
.	.	16a/LL
.	.	16b-/
.	.	16cc/
!	!	!LO:TX:t=P:problem:kreska pseudotaktowa
.	.	16dd/JJ
!LO:TX:t=P:problem:kreska pseudotaktowa	!	!
1GG	.	8.b-/L
.	.	16cc/Jk
.	.	8.b-/L
.	.	16cc/Jk
.	.	8.g/L
.	.	16a/Jk
.	.	8.b-/L
.	.	16cc/Jk
*	*custos:a	*
!	!LO:PB:g=original	!
=24-	=24-	=24-
2FF/	2r	1a
!	!LO:TX:t=P:problem:kreska pseudotaktowa	!
2F\	2a/	.
2G\	16b-\LL	00r
.	16cc\	.
.	16b-\	.
.	16cc\JJ	.
.	16b-\LL	.
.	16cc\	.
.	16dd\	.
.	16b-\JJ	.
!LO:TX:t=P:problem:kreska pseudotaktowa	!	!
2A\	16cc\LL	.
.	16dd\	.
.	16cc\	.
.	16dd\JJ	.
.	16cc\LL	.
.	16dd\	.
.	16ee\	.
!	!LO:TX:t=P:problem:kreska pseudotaktowa	!
.	16cc\JJ	.
=25-	=25-	=25-
1B-	8.dd\L	.
.	16ee\K	.
.	8.ff\	.
.	16gg\Jk	.
.	8ff\	.
.	4ee\	.
!	!LO:TX:t=P:problem:kreska pseudotaktowa	!
.	8dd\	.
!LO:TX:t=P:problem:kreska pseudotaktowa	!	!
1A	2cc\	.
!	!LO:TX:t=P:problem:mixed beam	!
.	16cc\LL	.
.	16f/	.
.	16g/	.
.	16a/JJ	.
.	16b-\LL	.
.	16cc\	.
.	16dd\	.
!	!LO:TX:t=P:problem:kreska pseudotaktowa	!
.	16ee\JJ	.
*	*custos:ff	*
!	!LO:LB:g=original	!
=26-	=26-	=26-
2.D/	[2ff\	.
.	8.ff\L]	.
.	16gg\Jk	.
4C/	8.ee\L	.
!	!LO:TX:t=P:problem:kreska pseudotaktowa	!
.	16ff\Jk	.
2BB-/	16dd\LL	0r
.	16ee-X\	.
.	16dd\	.
.	16ee-\JJ	.
.	16b-\LL	.
.	16cc\	.
.	16dd\	.
.	16ee-Xi\JJ	.
!LO:TX:t=P:problem:kreska pseudotaktowa	!	!
2AA/	16cc\LL	.
.	16dd\	.
.	16cc\	.
.	16dd\JJ	.
.	16a/LL	.
.	16b-/	.
.	16cc/	.
!	!LO:TX:t=P:problem:kreska pseudotaktowa	!
.	16dd/JJ	.
*custos:GG	*	*
!LO:LB:g=original	!	!
=27-	=27-	=27-
!LO:sic:s=1GG	!	!
1BB-	8.b-\L	.
.	16cc\Jk	.
.	8.b-\L	.
.	16cc\Jk	.
.	8.g/L	.
.	16a/Jk	.
.	8.b-/L	.
!	!LO:TX:t=P:problem:kreska pseudotaktowa	!
.	16cc/Jk	.
!LO:TX:t=P:problem:kreska pseudotaktowa	!	!
1F	4a/	4r
.	8ff\L	8aa\L
.	8ff\J	8aa\J
.	4ff\	4aa\
!	!LO:TX:t=P:problem:kreska pseudotaktowa	!
!	!	!LO:TX:t=P:problem:kreska pseudotaktowa
.	4ff\	4aa\
*	*custos:ff	*
!	!LO:LB:g=original	!
=28-	=28-	=28-
2.F\	[2ff\	2aa\
!	!LO:TX:t=P:problem:mixed beam	!LO:TX:t=P:problem:mixed beam
.	16ff\LL]	16aa\LL
.	16f/	16a/
.	16g/	16b-/
.	16a/JJ	16cc/JJ
4F\	16b-\LL	16dd\LL
.	16cc\	16eeny\
.	16dd\	16ff\
!	!LO:TX:t=P:problem:kreska pseudotaktowa	!
.	16eeny\JJ	16gg\JJ
2F\	4ff\	4aa\
.	16gg\LL	16bb-\LL
.	16ff\	16aa\
.	16ee\	16gg\
.	16dd\JJ	16ff\JJ
!LO:TX:t=P:problem:kreska pseudotaktowa	!	!
2C/	8ee\	4.gg\
.	4ff\	.
!	!	!LO:TX:t=P:problem:kreska pseudotaktowa
!	!LO:TX:t=P:problem:kreska pseudotaktowa	!
.	8ee\	8ff\
*	*	*custos:ff
!	!	!LO:LB:g=original
=29-	=29-	=29-
4D/	[2ff\	2ff\
4E\	.	.
4F\	8ff\L]	4a/
.	8aa\	.
4G\	8gg\	4b-/
!	!LO:TX:t=P:problem:kreska pseudotaktowa	!
.	8ff\J	.
4A\	[2ee\	4cc\
4B-\	.	4dd\
!LO:TX:t=P:problem:kreska pseudotaktowa	!	!
2c\	8ee\L]	4ee\
.	8gg\	.
.	8ff\	4ff\
!	!LO:TX:t=P:problem:kreska pseudotaktowa	!
.	8ee\J	.
=30-	=30-	=30-
1G	4dd\	4.gg\
.	8ee-X\L	.
.	8dd\J	8ff\
.	8ee-X\L	8gg\L
.	8dd\J	8ff\
.	8.dd\L	8.gg\
!	!LO:TX:t=P:problem:kreska pseudotaktowa	!
!	!	!LO:TX:t=P:problem:kreska pseudotaktowa
.	16cc\Jk	16ff\Jk
*	*custos:cc	*
!LO:TX:t=P:problem:kreska pseudotaktowa	!LO:LB:g=original	!
1C	4cc\	4ee\
.	8eeny\L	8gg\L
.	8ee\J	8gg\J
.	4ee\	4gg\
!	!LO:TX:t=P:problem:kreska pseudotaktowa	!LO:TX:t=P:problem:kreska pseudotaktowa
.	4ee\	4gg\
=31-	=31-	=31-
2.C/	2ee\	[2gg\
!	!LO:TX:t=P:problem:mixed beam	!LO:TX:t=P:problem:mixed beam
.	16ee\LL	16gg\LL]
.	16e/	16g/
.	16f/	16a/
.	16g/JJ	16b-/JJ
4C/	16a\LL	16cc\LL
.	16b-\	16dd\
.	16cc\	16ee\
!	!	!LO:TX:t=P:problem:kreska pseudotaktowa
!	!LO:TX:t=P:problem:kreska pseudotaktowa	!
.	16dd\JJ	16ff\JJ
*	*	*custos:gg
!	!	!LO:LB:g=original
2C/	8.ee\L	8.gg\L
.	16ff\Jk	16aa\Jk
.	16ee\LL	16gg\LL
.	16ff\	16aa\
.	16gg\	16bb-\
.	16ee\JJ	16gg\JJ
!LO:TX:t=P:problem:kreska pseudotaktowa	!	!
2FF/	8ff\L	8aa\L
.	16ff\L	16aa\L
.	16ee\JJ	16gg\JJ
.	8dd\L	8ff\L
.	16dd\L	16ff\L
!	!LO:TX:t=P:problem:kreska pseudotaktowa	!LO:TX:t=P:problem:kreska pseudotaktowa
.	16cc\JJ	16ee\JJ
=32-	=32-	=32-
4GG/	8b-/L	8dd\L
.	16b-/L	16gg\L
.	16b-/JJ	16gg\JJ
4AA/	8a/L	8ff\L
.	16a/L	16ff\L
.	16g/JJ	16ee\JJ
*	*custos:f	*
!	!LO:LB:g=original	!
!	!LO:TX:t=P:problem:mixed beam	!
4BB-/	8f/L	8dd\L
.	16dd\L	16bb-\L
.	16dd\JJ	16bb-\JJ
4C/	8cc\L	8aa\L
.	16cc\L	16aa\L
!	!LO:TX:t=P:problem:kreska pseudotaktowa	!LO:TX:t=P:problem:kreska pseudotaktowa
.	16b-\JJ	16gg\JJ
!	!LO:TX:t=P:problem:mixed beam	!
4D/	8a/L	8ff\L
.	16ff\L	16dd\L
.	16ff\JJ	16dd\JJ
4E\	8ee\L	8cc\L
.	16ee\L	16cc\L
.	16dd\JJ	16b-\JJ
*	*	*custos:a
!	!	!LO:LB:g=original
!LO:TX:t=P:problem:kreska pseudotaktowa	!	!LO:TX:t=P:problem:mixed beam
2F\	8cc\L	8a/L
.	16ff\L	16aa\L
.	16ff\JJ	16aa\JJ
.	8ee\L	8.gg\L
.	16ee\L	.
!	!LO:TX:t=P:problem:kreska pseudotaktowa	!LO:TX:t=P:problem:kreska pseudotaktowa
.	16dd\JJ	16ff\Jk
=33-	=33-	=33-
1C	8.cc\L	8.gg\L
.	16ff\Jk	16aa\Jk
.	8.ee\L	8.gg\L
.	16ff\Jk	16aa\Jk
.	8ee\	8gg\L
.	4ff\	8aa\J
!	!	!LO:TX:t=P:problem:kreska pseudotaktowa
.	.	4gg\
!	!LO:TX:t=P:problem:kreska pseudotaktowa	!
.	8ee\	.
*	*custos:ff	*
!LO:TX:t=P:problem:kreska pseudotaktowa	!LO:LB:g=original	!
1FF	2ff\	8ff\L
.	.	8aa\
.	.	8aa\
.	.	8aa\J
!	!	!LO:TX:t=P:problem:mixed beam
.	8r	8ff\L
.	8cc\L	8a/
.	8cc\	8a/
!	!LO:TX:t=P:problem:kreska pseudotaktowa	!LO:TX:t=P:problem:kreska pseudotaktowa
.	8cc\J	8a/J
=34-	=34-	=34-
!	!	!LO:TX:t=P:problem:mixed beam
2.F\	8a/	8f/L
.	16cc\LL	16aa\L
.	16cc\JJ	16aa\JJ
.	8a/L	8ff\L
.	16a/L	16cc\L
.	16a/JJ	16cc\JJ
!	!	!LO:TX:t=P:problem:mixed beam
.	8f/	8a/L
.	16cc\LL	16aa\L
.	16cc\JJ	16aa\JJ
*	*	*custos:ff
!	!	!LO:LB:g=original
4F\	8a/L	8ff\L
.	16a/L	16cc\L
!	!LO:TX:t=P:problem:kreska pseudotaktowa	!LO:TX:t=P:problem:kreska pseudotaktowa
.	16a/JJ	16cc\JJ
2F\	8.f/L	8.a/L
.	16f/Jk	16a/Jk
.	8.g/L	8.b-/L
.	16g/Jk	16b-/Jk
2F\	8.a/L	8.cc\L
.	16a/Jk	16cc\Jk
.	8.b-/L	8.dd\L
!	!LO:TX:t=P:problem:kreska pseudotaktowa	!LO:TX:t=P:problem:kreska pseudotaktowa
.	16b-/Jk	16dd\Jk
=35-	=35-	=35-
4C/	4cc\	8.ee\L
.	.	16ee\Jk
4D/	4r	8.ff\L
.	.	16ff\Jk
*	*custos:g	*
!	!LO:LB:g=original	!
4E\	8.g/L	4gg\
.	16g/Jk	.
4F\	8.a/L	4r
!	!LO:TX:t=P:problem:kreska pseudotaktowa	!
.	16a/Jk	.
*custos:G	*	*
!LO:LB:g=original	!	!
1G	8.b-/L	8.g/L
.	16b-/Jk	16g/Jk
.	8.cc\L	8.a/L
.	16cc\Jk	16a/Jk
.	8.dd\L	8.b-/L
.	16dd\Jk	16b-/Jk
.	8.ee\L	8.cc\L
!	!LO:TX:t=P:problem:kreska pseudotaktowa	!LO:TX:t=P:problem:kreska pseudotaktowa
.	16ee\Jk	16cc\Jk
=36-	=36-	=36-
2D/	8.ff\L	8.dd\L
.	16ff\Jk	16dd\Jk
*	*	*custos:ee
!	!	!LO:LB:g=original
.	8.gg\L	8.ee\L
.	16gg\Jk	16ee\Jk
!LO:TX:t=P:problem:kreska pseudotaktowa	!LO:TX:t=P:problem:kreska pseudotaktowa	!
2D/	2aa\	8.ff\L
.	.	16ff\Jk
.	.	8.gg\L
!	!	!LO:TX:t=P:problem:kreska pseudotaktowa
.	.	16gg\Jk
2D/	8aa\L	[2aa\
.	16gg\L	.
.	16ff\JJ	.
.	32ee\LLL	.
.	32ff\	.
.	32gg\	.
.	32ff\JJJ	.
.	32ee\LLL	.
.	32dd\	.
.	32cc\	.
.	32b-\JJJ	.
2C/	2a/	8aa\L]
.	.	16gg\L
.	.	16ff\JJ
.	.	32ee\LLL
.	.	32ff\
.	.	32gg\
.	.	32ff\JJJ
.	.	32ee\LLL
.	.	32dd\
.	.	32cc\
.	.	32b-\JJJ
*	*custos:dd	*
!	!LO:LB:g=original	!
=37-	=37-	=37-
2.D/	2r	2a/
.	4r	2r
!LO:TX:t=P:problem:kreska pseudotaktowa	!	!
4C/	4dd\	.
2BB-/	8dd\L	1r
.	16b-\L	.
.	16cc\JJ	.
.	16dd\LL	.
.	16b-\	.
.	16cc\	.
.	16dd\JJ	.
2AA/	8cc\L	.
.	16a\L	.
.	16b-\JJ	.
.	16cc/LL	.
.	16a/	.
.	16b-/	.
!	!LO:TX:t=P:problem:kreska pseudotaktowa	!
.	16cc/JJ	.
=38-	=38-	=38-
!LO:TX:t=P:problem:kreska pseudotaktowa	!	!
1GG	4.dd\	2r
.	8cc\	.
!	!	!LO:TX:t=P:problem:kreska pseudotaktowa
.	8b-/L	2dd\
.	8a/	.
.	8b-/	.
!	!LO:TX:t=P:problem:kreska pseudotaktowa	!
.	8cc/J	.
2BB-/	8b-/L	8dd\L
.	16g/L	16b-\L
.	16a/JJ	16cc\JJ
.	16b-/LL	16dd\LL
.	16g/	16b-\
.	16a/	16cc\
.	16b-/JJ	16dd\JJ
*	*	*custos:cc
!	!	!LO:LB:g=original
2F\	8a/L	8cc\L
.	16f/L	16a\L
.	16g/JJ	16b-\JJ
.	16a/LL	16cc\LL
.	16f/	16a\
.	16g/	16b-\
!	!LO:TX:t=P:problem:kreska pseudotaktowa	!
!	!	!LO:TX:t=P:problem:kreska pseudotaktowa
.	16a/JJ	16cc\JJ
*	*custos:b-	*
!	!LO:LB:g=original	!
=39-	=39-	=39-
2.BB-/	4b-/	4dd\
.	16g/LL	16b-\LL
.	16a/	16cc\
.	16b-/	16dd\
.	16cc/JJ	16ee-X\JJ
.	4b-/	4dd\
!LO:TX:t=P:problem:kreska pseudotaktowa	!LO:TX:t=P:problem:kreska pseudotaktowa	!LO:TX:t=P:problem:kreska pseudotaktowa
4F\	4a/	4cc\
2F\	16g/LL	16b-\LL
.	16cc/	16ee-X\
.	16b-/	16dd\
.	16a/JJ	16cc\JJ
.	16g/LL	16b-\LL
.	16b-/	16dd\
.	16a/	16cc\
.	16g/JJ	16b-\JJ
2D/	16f#X/LL	16a/LL
.	16b-/	16dd/
.	16cc/	16cc/
.	16g/JJ	16b-/JJ
.	16f#X/LL	16a/LL
.	16g/	16cc/
.	16a/	16b-/
!	!LO:TX:t=P:problem:kreska pseudotaktowa	!LO:TX:t=P:problem:kreska pseudotaktowa
.	16f#/JJ	16a/JJ
=40-	=40-	=40-
2GG/	2g/	1g
!LO:TX:t=P:problem:kreska pseudotaktowa	!	!
2G\	4r	.
!	!LO:TX:t=P:problem:kreska pseudotaktowa	!
.	4b-/	.
2G\	8b-/L	1r
.	16g/L	.
.	16a/JJ	.
.	16b-/LL	.
.	16g/	.
.	16a/	.
.	16b-/JJ	.
*	*custos:a	*
!	!LO:LB:g=original	!
2F\	8a/L	.
.	16fny/L	.
.	16g/	.
.	16a/	.
.	16f/	.
.	16g/	.
.	16a/JJ	.
=41-	=41-	=41-
!	!LO:TX:t=P:problem:kreska pseudotaktowa	!
2.G\	1g	2r
.	.	2gg\
!LO:TX:t=P:problem:kreska pseudotaktowa	!	!
4F\	.	.
2E\	1r	8gg\L
.	.	16eeny\L
.	.	16ff\JJ
.	.	16gg\LL
.	.	16ee\
.	.	16ff\
.	.	16gg\JJ
2D/	.	8ff\L
.	.	16dd\L
.	.	16ee\JJ
.	.	16ff\LL
.	.	16dd\
.	.	16ee\
!	!	!LO:TX:t=P:problem:kreska pseudotaktowa
.	.	16ff\JJ
=42-	=42-	=42-
!LO:TX:t=P:problem:kreska pseudotaktowa	!	!
1C	4ee\	4gg\
.	8.cc\L	8.ee\L
.	16dd\Jk	16ff\Jk
.	8ee\	8gg\L
.	4ff\	8aa\
.	.	8.gg\
!	!LO:TX:t=P:problem:kreska pseudotaktowa	!
.	8ee\	.
.	.	16ff\Jk
1F	1ff	4ff\
.	.	4cc\
.	.	4cc\
.	.	4cc\
*	*	*custos:a
!	!	!LO:LB:g=original
=43-	=43-	=43-
1F	4r	1a
.	4cc\	.
.	4cc\	.
!	!LO:TX:t=P:problem:kreska pseudotaktowa	!
.	4cc\	.
*custos:F	*	*
!LO:PB:g=original	!	!
2F\	2a/	8r
.	.	16a/LL
.	.	16b-/JJ
.	.	8cc/L
.	.	8b-/J
!	!	!LO:TX:t=P:problem:kreska pseudotaktowa
2F\	8r	2a/
.	16a/LL	.
.	16b-/J	.
.	8cc/	.
.	8b-/J	.
*	*custos:a	*
!	!LO:LB:g=original	!
=44-	=44-	=44-
!LO:TX:t=P:problem:kreska pseudotaktowa	!	!
1F	2a/	8r
.	.	16a/LL
.	.	16b-/JJ
.	.	16cc/LL
.	.	16a/
.	.	16cc/
.	.	16b-/JJ
!	!	!LO:TX:t=P:problem:kreska pseudotaktowa
.	8r	2a/
.	16a/LL	.
.	16b-/JJ	.
.	16cc\LL	.
.	16a\	.
.	16cc\	.
!	!LO:TX:t=P:problem:kreska pseudotaktowa	!
.	16dd\JJ	.
1.C	2ee\	8r
.	.	8gg\L
.	.	8gg\
.	.	8gg\J
.	8r	2ee\
.	8gg\L	.
.	8gg\	.
!	!LO:TX:t=P:problem:kreska pseudotaktowa	!
.	8gg\J	.
=45-	=45-	=45-
.	2ee\	8r
.	.	16ee\LL
.	.	16ff\J
.	.	8gg\
.	.	8ff\J
!LO:TX:t=P:problem:kreska pseudotaktowa	!	!
2C/	8r	2ee\
.	16ee\LL	.
.	16ff\J	.
.	8gg\	.
!	!LO:TX:t=P:problem:kreska pseudotaktowa	!
.	8ff\J	.
*	*	*custos:ee
!	!	!LO:LB:g=original
1C	2ee\	8r
.	.	16ee\LL
.	.	16ff\JJ
.	.	16gg\LL
.	.	16ee\
.	.	16gg\
.	.	16ff\JJ
!	!	!LO:TX:t=P:problem:kreska pseudotaktowa
.	8r	2ee\
.	16ee\LL	.
.	16ff\	.
.	16gg\	.
.	16ee\	.
.	16ff\	.
.	16gg\JJ	.
=46-	=46-	=46-
!LO:TX:t=P:problem:kreska pseudotaktowa	!	!
1F	2ff\	8r
.	.	8aa\L
.	.	8aa\
.	.	8aa\J
!	!	!LO:TX:t=P:problem:kreska pseudotaktowa
.	8r	2ff\
.	8aa\L	.
.	8aa\	.
.	8aa\J	.
*	*custos:ff	*
!	!LO:LB:g=original	!
2F\	2ff\	8r
.	.	16ff\LL
.	.	16gg\J
.	.	8aa\
.	.	8gg\J
!	!	!LO:TX:t=P:problem:kreska pseudotaktowa
2F\	8r	2ff\
.	16ff\LL	.
.	16gg\JJ	.
.	8aa\L	.
!	!LO:TX:t=P:problem:kreska pseudotaktowa	!
.	8gg\J	.
=47-	=47-	=47-
1D	2ff\	8r
.	.	16ff\LL
.	.	16gg\JJ
.	.	16aa\LL
.	.	16ff\
.	.	16aa\
.	.	16gg\JJ
!	!	!LO:TX:t=P:problem:kreska pseudotaktowa
.	8r	2ff\
.	16ff\LL	.
.	16gg\	.
.	16aa\	.
.	16ff\	.
.	16aa\	.
!	!LO:TX:t=P:problem:kreska pseudotaktowa	!
.	16gg\JJ	.
*	*	*custos:dd
!LO:TX:t=P:problem:kreska pseudotaktowa	!	!LO:PB:g=original
1D	2ff\	8r
.	.	8dd\L
.	.	8dd\
.	.	8dd\J
.	8r	8.dd\L
.	8dd\L	.
.	.	16ee\Jk
.	8dd\	8.dd\L
!	!LO:TX:t=P:problem:kreska pseudotaktowa	!
.	8dd\J	.
!	!	!LO:TX:t=P:problem:kreska pseudotaktowa
.	.	16cc\Jk
=48-	=48-	=48-
!	!	!LO:N:acc=#
0G	8.dd\L	8.bn\L
.	16ee\Jk	16cc\Jk
.	8.dd\L	8.b\L
.	16cc\Jk	16ee\Jk
!	!LO:N:acc=#	!
.	8.bn\L	8.dd\L
.	16cc\Jk	16ee\Jk
.	8.b\L	8.dd\L
!	!LO:TX:t=P:problem:kreska pseudotaktowa	!
!	!	!LO:TX:t=P:problem:kreska pseudotaktowa
.	16cc\Jk	16ee\Jk
*	*custos:dd	*
!	!LO:PB:g=original	!LO:N:acc=#
.	8.dd\L	8.bn\L
.	16ee\Jk	16cc\Jk
!	!LO:N:acc=#	!
.	8.bn\L	8.dd\L
.	16cc\Jk	16ee\Jk
!	!	!LO:N:acc=#
.	8dd\L	8bn/
.	8ee\J	4cc\
!	!LO:TX:t=P:problem:kreska pseudotaktowa	!
.	4dd\	.
!	!	!LO:TX:t=P:problem:kreska pseudotaktowa
!	!	!LO:N:acc=#
.	.	8bni/
=49-	=49-	=49-
!LO:TX:t=P:problem:kreska pseudotaktowa	!	!
0C	8cc\L	8cc\L
.	16ee\L	16gg\L
.	16ee\JJ	16gg\J
.	8ee\L	8gg\
.	8ee\J	8gg\J
.	8.ee\L	8.gg\L
.	16ff\Jk	16aa\Jk
.	8.ee\L	8.gg\L
!	!LO:TX:t=P:problem:kreska pseudotaktowa	!LO:TX:t=P:problem:kreska pseudotaktowa
.	16ff\Jk	16aa\Jk
.	8.cc\L	8.ee\L
.	16dd\Jk	16ff\Jk
.	8.ee\L	8.gg\L
.	16ff\Jk	16aa\Jk
*	*	*custos:gg
!	!	!LO:LB:g=original
.	8.ee\L	8.gg\L
.	16ff\Jk	16aa\Jk
.	8.cc\L	8.ee\L
!	!	!LO:TX:t=P:problem:kreska pseudotaktowa
.	16dd\Jk	16ff\Jk
=50-	=50-	=50-
2C/	8ee\	8gg\L
.	4ff\	8aa\J
.	.	4gg\
.	8ee\	.
!	!LO:TX:t=P:problem:kreska pseudotaktowa	!
2F\	2ff\	2ff\
*	*custos:a	*
!	!LO:LB:g=original	!
2B-\	2r	2r
!LO:TX:t=P:problem:kreska pseudotaktowa	!	!
2A\	2a/	2cc\
=51-	=51-	=51-
2.G\	4b-y/	4dd\
.	4cc\	4ee\
.	4dd\	4ff\
!	!LO:TX:t=P:problem:kreska pseudotaktowa	!LO:TX:t=P:problem:kreska pseudotaktowa
4G\	4ee\	4gg\
2F\	[4ff\	16aa\LL
.	.	16bb-\
.	.	16aa\
.	.	16bb-\JJ
.	8.ff\L]	16aa\LL
.	.	16bb-\
.	.	16aa\
.	16ee\Jk	16gg\JJ
!LO:TX:t=P:problem:kreska pseudotaktowa	!	!
[2B-\	16dd\LL	[4ff\
.	16ee-X\	.
.	16dd\	.
.	16ee-\JJ	.
.	16dd\LL	8.ff\L]
.	16ee-\	.
.	16dd\	.
!	!	!LO:TX:t=P:problem:kreska pseudotaktowa
!	!LO:TX:t=P:problem:kreska pseudotaktowa	!
.	16cc\JJ	16ee-Xi\Jk
=52-	=52-	=52-
2B-\]	4b-/	16dd\LL
.	.	16ee-X\
.	.	16dd\
.	.	16ee-\
.	8.b-/L	16dd\
.	.	16ee-\
.	.	16dd\
.	16a/Jk	16cc\JJ
*custos:E-	*	*
!LO:LB:g=original	!	!
1E-X	16g/LL	[4b-y/
.	16a-X/	.
.	16g/	.
.	16a-/	.
.	16g/	8.b-/L]
.	16a-/	.
.	16g/	.
!	!	!LO:TX:t=P:problem:kreska pseudotaktowa
!	!LO:TX:t=P:problem:kreska pseudotaktowa	!
.	16f/JJ	16a-Xi/Jk
.	4e-X/	4g/
.	8.ee-Xi\L	8.gg\L
.	16ff\Jk	16aa\Jk
*	*custos:dd	*custos:ff
!LO:TX:t=P:problem:kreska pseudotaktowa	!LO:LB:g=original	!LO:LB:g=original
2F\	8.dd\L	8.ff\L
.	16ee-Xi\Jk	16gg\Jk
.	8.cc\L	8.ee-Xi\L
!	!LO:TX:t=P:problem:kreska pseudotaktowa	!LO:TX:t=P:problem:kreska pseudotaktowa
.	16dd\Jk	16ff\Jk
=53-	=53-	=53-
!	!LO:N:acc=#	!
0G	8.bn/L	8.dd\L
.	16cc/Jk	16eeny\Jk
.	8.b/L	8.dd\L
.	16cc/Jk	16ee\Jk
!	!	!LO:N:acc=#
.	8.dd\L	8.bn\L
.	16eeny\Jk	16cc\Jk
!	!LO:N:acc=#	!
.	8.bn\L	8.dd\L
!	!LO:TX:t=P:problem:kreska pseudotaktowa	!LO:TX:t=P:problem:kreska pseudotaktowa
.	16cc\Jk	16ee\Jk
!	!	!LO:N:acc=#
.	2dd\	8.bn/L
.	.	16f#Xi/Jk
.	.	16g/LL
.	.	16any/
!	!	!LO:N:acc=#
.	.	16bni/
.	.	16cc/JJ
.	2dd\	16dd\LL
.	.	16cc\JJ
.	.	16a/LL
!	!	!LO:N:acc=#
.	.	16bni/JJ
.	.	32cc\LLL
!	!	!LO:N:acc=#
.	.	32bni\
.	.	32cc\
!	!	!LO:N:acc=#
.	.	32bni\
.	.	32cc\
!	!	!LO:N:acc=#
.	.	32bni\
.	.	32a\
!	!	!LO:N:acc=#
.	.	32bni\JJJ
=54-	=54-	=54-
1C	[2cc\	1cc
!	!LO:TX:t=P:problem:mixed beam	!
.	16cc\LL]	.
.	16d/	.
.	16eny/	.
.	16f/JJ	.
.	16g/LL	.
.	16any/	.
.	16b-y/	.
!	!LO:TX:t=P:problem:kreska pseudotaktowa	!
.	16cc/JJ	.
*	*custos:dd	*
!	!LO:LB:g=original	!
2G\	16dd\LL	2r
.	16cc\	.
.	16a\	.
!	!LO:N:acc=#	!
.	16bni\JJ	.
.	32cc\LLL	.
!	!LO:N:acc=#	!
.	32bni\	.
.	32cc\	.
!	!LO:N:acc=#	!
.	32bni\JJJ	.
.	32cc\LLL	.
!	!LO:N:acc=#	!
.	32bni\	.
.	32a\	.
!	!LO:N:acc=#	!
.	32bni\JJJ	.
!LO:TX:t=P:problem:kreska pseudotaktowa	!LO:TX:t=P:problem:kreska pseudotaktowa	!
2C/	2cc\	4r
!	!	!LO:TX:t=P:problem:kreska pseudotaktowa
.	.	4ee\
*	*	*custos:cc
!	!	!LO:LB:g=original
=55-	=55-	=55-
2F\	0r	4cc\
.	.	16a/LL
.	.	16b-y/
.	.	16cc/
.	.	16dd/JJ
2Eny\	.	8ee\L
.	.	8ff\
.	.	8gg\
!	!	!LO:TX:t=P:problem:kreska pseudotaktowa
.	.	8ee\J
2.D/	.	4.ff\
.	.	8ee\
.	.	8ff\L
.	.	8ee\
!LO:TX:t=P:problem:kreska pseudotaktowa	!	!
4D/	.	8ff\
!	!	!LO:TX:t=P:problem:kreska pseudotaktowa
.	.	8gg\J
=56-	=56-	=56-
2C/	8r	2ee\
.	8cc\	.
.	16a/LL	.
.	16cc/	.
.	16cc/	.
.	16b-y/JJ	.
!	!LO:TX:t=P:problem:kreska pseudotaktowa	!
1F	2a/	8r
.	.	8aa\
.	.	16ff\LL
.	.	16aa\
.	.	16aa\
!	!	!LO:TX:t=P:problem:kreska pseudotaktowa
.	.	16gg\JJ
.	8r	2ff\
.	8aa\	.
.	16ff\LL	.
.	16aa\	.
.	16aa\	.
.	16gg\JJ	.
!	!LO:TX:t=P:problem:kreska pseudotaktowa	!
1BB-	2ff\	8r
.	.	8dd\
.	.	16b-\LL
.	.	16dd\
.	.	16dd\
!	!	!LO:TX:t=P:problem:kreska pseudotaktowa
.	.	16cc\JJ
=57-	=57-	=57-
.	8r	8b-\L
.	8dd\	8ff\J
*	*custos:b-	*
!	!LO:LB:g=original	!
.	16b-\LL	16dd\LL
.	16dd\	16ff\
.	16cc\	16ee\
.	16b-\JJ	16dd\JJ
*	*	*custos:cc
!LO:TX:t=P:problem:kreska pseudotaktowa	!	!LO:LB:g=original
2C/	16a/LL	16cc\LL
.	16cc/	16ee\
.	16b-/	16dd\
.	16a/JJ	16cc\JJ
.	16g/LL	16b-\LL
.	16b-/	16dd\
.	16a/	16cc\
!	!LO:TX:t=P:problem:kreska pseudotaktowa	!LO:TX:t=P:problem:kreska pseudotaktowa
.	16g/JJ	16b-\JJ
0D	2f#X/	8a/L
.	.	8dd/J
.	.	8a/L
.	.	8b-/J
!	!	!LO:N:vis=16
.	8r	8f#X/L
!	!	!LO:N:vis=16
.	8dd\L	8d/
!	!	!LO:N:vis=16
.	8a\	8f#/
!	!	!LO:N:vis=16
!	!LO:TX:t=P:problem:kreska pseudotaktowa	!LO:TX:t=P:problem:kreska pseudotaktowa
.	8b-\J	8g/J
=58-	=58-	=58-
.	16f#X/LL	16a/LL
.	16g/	16b-/
.	16a/	16cc/
.	16b-/JJ	16dd/JJ
.	16cc\LL	16ee\LL
.	16dd\	16ff\
.	16ee\	16gg\
.	16ff#Xi\JJ	16aa\JJ
!	!	!LO:N:acc=#
.	16gg\LL	16bbni\LL
.	16ff#Xi\	16aa\
!	!	!LO:N:acc=#
.	16gg\	16bbni\
.	16ff#Xi\	16aa\
.	16gg\	16bb\
.	16ff#Xi\	16aa\
.	16ee\	16gg\
.	16ff#Xi\JJ	16aa\JJ
!	!	!LO:TX:t=P:problem:kreska pseudotaktowa
!	!	!LO:TX:a:t=P:problem:# below
!	!	!LO:N:acc=#
2GG/	1gg	1bbn
!LO:TX:t=P:problem:kreska pseudotaktowa	!	!
2GG/	.	.
*	*custos:dd	*
!	!LO:LB:g=original	!
=59-	=59-	=59-
1.G	1r	2r
.	.	2dd\
.	2r	[2dd\
!LO:TX:t=P:problem:kreska pseudotaktowa	!LO:TX:t=P:problem:kreska pseudotaktowa	!
2F\	2dd\	8.dd\L]
.	.	16ee\Jk
.	.	8.cc\L
.	.	16dd\Jk
*	*	*custos:b
!	!	!LO:LB:g=original
=60-	=60-	=60-
!	!	!LO:N:acc=#
1G	8.dd\L	4bn/
.	16ee\Jk	.
.	8.dd\L	4g/
.	16cc\Jk	.
!	!LO:N:acc=#	!LO:TX:t=P:problem:kreska pseudotaktowa
.	4bn/	[2gg\
.	4a/	.
!LO:TX:t=P:problem:kreska pseudotaktowa	!LO:TX:t=P:problem:kreska pseudotaktowa	!LO:TX:t=P:problem:mixed beam
1G	1b	16gg\LL]
.	.	16g/
.	.	16a/
!	!	!LO:N:acc=#
.	.	16bni/JJ
.	.	16cc\LL
.	.	16dd\
.	.	16ee\
.	.	16ff\JJ
.	.	4.gg\
.	.	8ff\
=61-	=61-	=61-
!	!	!LO:TX:t=P:problem:kreska pseudotaktowa
1C	16r	1ee
.	16c/LL	.
.	16d/	.
.	16e/	.
.	16fny/	.
.	16g/	.
.	16a/	.
.	16b-y/JJ	.
.	4.cc\	.
!	!LO:TX:t=P:problem:kreska pseudotaktowa	!
.	8b-/	.
!LO:TX:t=P:problem:kreska pseudotaktowa	!	!
1F	1a	16r
.	.	16a/LL
.	.	16b-y/
.	.	16cc/JJ
.	.	16dd\LL
.	.	16ee\
.	.	16ff\
.	.	16gg\JJ
.	.	4.aa\
.	.	8gg\
=62-	=62-	=62-
1D	16r	4ff\
.	16d/LL	.
.	16e/	.
.	16f/	.
.	16g/	4ee\
.	16a/	.
.	16b-/	.
.	16cc/JJ	.
!	!LO:TX:t=P:problem:kreska pseudotaktowa	!
!	!	!LO:TX:t=P:problem:kreska pseudotaktowa
.	[2dd\	[2ff\
*custos:D	*custos:dd	*
!LO:LB:g=original	!LO:LB:g=original	!
2D/	8.dd\L]	8.ff\L]
.	16ee-X\Jk	16gg\Jk
.	8.dd\L	8.ff\L
.	16ee-X\Jk	16gg\Jk
!	!LO:TX:t=P:problem:kreska pseudotaktowa	!
2A\	2cc#X\	8.ee\L
.	.	16ff\Jk
.	.	8.ee\L
.	.	16ff\Jk
*	*	*custos:dd
!	!	!LO:LB:g=original
=63-	=63-	=63-
2.D/	16r	2dd\
.	16f/LL	.
.	16g/	.
.	16a/	.
.	16b-/	.
.	16ccny/	.
.	16dd/	.
.	16eeny/JJ	.
!	!LO:TX:t=P:problem:kreska pseudotaktowa	!
.	2ffny\	16r
.	.	16d/LL
.	.	16e/
.	.	16fny/JJ
!LO:TX:t=P:problem:kreska pseudotaktowa	!	!
4C/	.	16g/LL
.	.	16a/
.	.	16b-/
.	.	16cc/JJ
0BB-	8.ff\L	8.dd\L
.	16gg\Jk	16ee-X\Jk
.	8.ff\L	8.dd\L
.	16gg\Jk	16ee-\Jk
.	8.ee\L	8.cc\L
.	16ff\Jk	16dd\Jk
.	8.ee\L	8.cc\L
!	!LO:TX:t=P:problem:kreska pseudotaktowa	!LO:TX:t=P:problem:kreska pseudotaktowa
.	16ff\Jk	16dd\Jk
=64-	=64-	=64-
.	2dd\	4.b-/
.	.	8a/
!	!	!LO:N:vis=16
.	2dd\	8b-/L
!	!	!LO:N:vis=16
.	.	8a/
!	!	!LO:N:vis=16
.	.	8b-/
!	!	!LO:TX:t=P:problem:kreska pseudotaktowa
!	!	!LO:N:vis=16
.	.	8cc/J
0F	1cc	1a
*	*custos:a	*
!	!LO:LB:g=original	!
=65-	=65-	=65-
!LO:TX:t=P:problem:kreska pseudotaktowa	!	!
.	2r	2r
.	2a/	2cc\
2BB-/	4.b-/	2dd\
.	8a/	.
2BB-/	8b-/L	2dd\
.	8a/	.
.	8b-/	.
.	8cc/J	.
=66-	=66-	=66-
!	!LO:TX:t=P:problem:kreska pseudotaktowa	!
2F\	1a	[2cc\
!LO:TX:t=P:problem:kreska pseudotaktowa	!	!LO:TX:t=P:problem:mixed beam
2F\	.	16cc/LL]
.	.	16f/
.	.	16g/
.	.	16a/JJ
.	.	16b-\LL
.	.	16cc\
.	.	16dd\
.	.	16eeny\JJ
*	*	*custos:ff
!	!	!LO:LB:g=original
2.D/	[2a/	2ff\
.	16a/LL]	2ff\
.	16c/	.
.	16d/	.
.	16e/JJ	.
4D/	16f/LL	.
.	16g/	.
.	16a/	.
.	16b-/JJ	.
=67-	=67-	=67-
2C/	1cc	4.ee\
.	.	8ff\
!LO:TX:t=P:problem:kreska pseudotaktowa:między nutą a kropką	!	!
2.C/	.	16gg\LL
.	.	16aa\
.	.	16gg\
.	.	16aa\JJ
.	.	16ff\LL
.	.	16gg\
.	.	16ff\
!	!	!LO:TX:t=P:problem:kreska pseudotaktowa
.	.	16gg\JJ
.	0r	16ee\LL
.	.	16ff\
.	.	16ee\
.	.	16ff\JJ
4BB-/	.	16dd\LL
.	.	16ee\
.	.	16dd\
.	.	16ee\JJ
4AA/	.	16cc\LL
.	.	16dd\
.	.	16cc\
.	.	16dd\JJ
4GG/	.	16b-\LL
.	.	16cc\
.	.	16b-\
!	!	!LO:TX:t=P:problem:kreska pseudotaktowa
.	.	16cc\JJ
=68-	=68-	=68-
!LO:TX:t=P:problem:kreska pseudotaktowa	!	!
1FF	.	4a/
.	.	4b-/
.	.	4cc\
!	!	!LO:TX:t=P:problem:kreska pseudotaktowa
.	.	4a/
2GG/	1r	8b-/
.	.	8.gg\L
.	.	16aa\L
.	.	16gg\
.	.	16aa\JJ
*	*	*custos:ff
!	!	!LO:LB:g=original
2AA/	.	16ff\LL
.	.	16gg\
.	.	16ff\
.	.	16gg\JJ
.	.	16ee\LL
.	.	16ff\
.	.	16ee\
!	!	!LO:TX:t=P:problem:kreska pseudotaktowa
.	.	16ff\JJ
=69-	=69-	=69-
!	!	!LO:TX:t=P:problem:mixed beam
1GG	2r	8.dd\L
.	.	16f#Xi/Jk
.	.	16g/LL
.	.	16a/
!	!	!LO:N:acc=#
.	.	16bni/
.	.	16cc/JJ
!	!LO:TX:t=P:problem:kreska pseudotaktowa	!
.	[2gg\	16dd\LL
.	.	16cc\
.	.	16a\
!	!	!LO:N:acc=#
.	.	16bni\JJ
.	.	32cc\LLL
!	!	!LO:N:acc=#
.	.	32bni\
.	.	32cc\
!	!	!LO:N:acc=#
.	.	32bni\
.	.	32cc\
!	!	!LO:N:acc=#
.	.	32bni\
.	.	32cc\
!	!	!LO:TX:t=P:problem:kreska pseudotaktowa
!	!	!LO:N:acc=#
.	.	32bni\JJJ
0C	16gg\LL]	2cc\
.	16aa\	.
.	16gg\	.
.	16aa\JJ	.
.	16ff\LL	.
.	16gg\	.
.	16ff\	.
.	16gg\JJ	.
*	*custos:ee	*
!	!LO:LB:g=original	!
.	16ee\LL	[2gg\
.	16ff\	.
.	16ee\	.
.	16ff\JJ	.
.	16dd\LL	.
.	16ee\	.
.	16dd\	.
.	16ee\JJ	.
=70-	=70-	=70-
.	4cc\	16gg\LL]
.	.	16aa\
.	.	16gg\
.	.	16aa\JJ
.	4r	16ff\LL
.	.	16gg\
.	.	16ff\
.	.	16gg\JJ
.	16cc\LL	16ee\LL
.	16dd\	16ff\
.	16cc\	16ee\
.	16dd\JJ	16ff\JJ
.	16b-\LL	16dd\LL
.	16cc\	16ee\
.	16b-\	16dd\
!	!	!LO:TX:t=P:problem:kreska pseudotaktowa
!	!LO:TX:t=P:problem:kreska pseudotaktowa	!
.	16cc\JJ	16ee\JJ
*	*	*custos:cc
!	!	!LO:LB:g=original
1F	16a/LL	4cc\
.	16b-/	.
.	16a/	.
.	16b-/JJ	.
.	16g/LL	4r
.	16a/	.
.	16g/	.
.	16a/JJ	.
.	16f/LL	16aa\LL
.	16g/	16bb-y\
.	16f/	16aa\
.	16g/JJ	16bb-\JJ
.	16e/LL	16gg\LL
.	16f/	16aa\
.	16e/	16gg\
!	!LO:TX:t=P:problem:kreska pseudotaktowa	!LO:TX:t=P:problem:kreska pseudotaktowa
.	16f/JJ	16aa\JJ
=71-	=71-	=71-
2BB-/	4d/	16ff\LL
.	.	16gg\
.	.	16ff\
.	.	16gg\JJ
.	4r	16ee-Xi\LL
.	.	16ff\
.	.	16ee-\
.	.	16ff\JJ
!LO:TX:t=P:problem:kreska pseudotaktowa	!	!
!	!	!LO:TX:t=P:problem:kreska pseudotaktowa
2B-\	16dd\LL	2dd\
.	16ee-Xi\	.
.	16dd\	.
.	16ee-\JJ	.
*	*custos:cc	*
!	!LO:LB:g=original	!
.	16cc\LL	.
.	16dd\	.
.	16cc\	.
.	16dd\JJ	.
*custos:G	*	*
!LO:LB:g=original	!	!
2.G\	16b-\LL	16dd\LL
.	16cc\	16ee-X\
.	16b-\	16dd\
.	16cc\JJ	16ee-\JJ
.	16a/LL	16cc\LL
.	16b-/	16dd\
.	16a/	16cc\
.	16b-/JJ	16dd\JJ
!	!LO:TX:t=P:problem:kreska pseudotaktowa	!
.	2g/	8.b-y\L
.	.	16cc\Jk
4G\	.	8.b-\L
!	!	!LO:TX:t=P:problem:kreska pseudotaktowa
.	.	16cc\Jk
=72-	=72-	=72-
2F\	4r	2a/
.	4cc\	.
!LO:TX:t=P:problem:kreska pseudotaktowa:między nutą a kropką	!	!
2.F\	16cc\LL	[<2aa\
.	16dd\	.
.	16cc\	.
.	16dd\JJ	.
.	16b-\LL	.
.	16cc\	.
.	16b-\	.
!	!LO:TX:t=P:problem:kreska pseudotaktowa	!
.	16cc\JJ	.
.	2a/	16aa\LL]
.	.	16bb-\
.	.	16aa\
.	.	16bb-\JJ
*	*	*custos:gg
!	!	!LO:LB:g=original
4E\	.	16gg\LL
.	.	16aa\
.	.	16gg\
.	.	16aa\JJ
4D/	2dd\	16ff\LL
.	.	16gg\
.	.	16ff\
.	.	16gg\JJ
4C/	.	16eeny\LL
.	.	16ff\
.	.	16ee\
!	!	!LO:TX:t=P:problem:kreska pseudotaktowa
.	.	16ff\JJ
=73-	=73-	=73-
!LO:TX:t=P:problem:kreska pseudotaktowa	!	!
1BB-	16dd\LL	1dd
.	16ee-Xi\	.
.	16dd\	.
.	16ee-\JJ	.
.	16cc\LL	.
.	16dd\	.
.	16cc\	.
.	16dd\JJ	.
.	16b-\LL	.
.	16cc\	.
.	16b-\	.
.	16cc\JJ	.
.	16a/LL	.
.	16b-/	.
.	16a/	.
.	16b-/JJ	.
*	*custos:g	*
!	!LO:LB:g=original	!
2C/	2g/	4r
.	.	4gg\
2D/	2r	8.ff\L
.	.	16gg\Jk
.	.	8.ff\L
.	.	16gg\Jk
=74-	=74-	=74-
!LO:TX:t=P:problem:kreska pseudotaktowa	!	!
1C	4r	1ee
.	4cc\	.
.	8.cc\L	.
.	16dd\Jk	.
.	8.b-/L	.
!	!LO:TX:t=P:problem:kreska pseudotaktowa	!
.	16cc/Jk	.
2F\	2a/	4r
.	.	4cc\
1F	4r	8.b-/L
.	.	16cc/Jk
.	4dd\	8.b-/L
.	.	16cc/Jk
=75-	=75-	=75-
.	8.cc\L	2a/
.	16dd\Jk	.
.	8.b-/L	.
.	16cc/Jk	.
!LO:TX:t=P:problem:kreska pseudotaktowa	!	!LO:TX:t=P:problem:kreska pseudotaktowa
2F\	8.a/L	[2ff\
.	16b-/Jk	.
.	8.g/L	.
!	!LO:TX:t=P:problem:kreska pseudotaktowa	!
.	16a/Jk	.
1BB-	2f/	8.ff\L]
.	.	16gg\Jk
.	.	8.ee-Xi\L
.	.	16ff\Jk
*	*	*custos:dd
!	!	!LO:LB:g=original
.	2ff\	8.dd\L
.	.	16ee-Xi\Jk
.	.	8.cc\L
!	!	!LO:TX:t=P:problem:kreska pseudotaktowa
.	.	16dd\Jk
=76-	=76-	=76-
1BB-	8.ff\L	2b-/
.	16gg\Jk	.
.	8.ee-Xi\L	.
.	16ff\Jk	.
.	8.dd\L	8.ff\L
.	16ee-Xi\Jk	16gg\Jk
.	8.cc\L	8.ee-Xi\L
!	!	!LO:TX:t=P:problem:kreska pseudotaktowa
.	16dd\Jk	16ff\Jk
*	*custos:ff	*
!	!LO:LB:g=original	!
0BB-	8.ff\L	8.dd\L
.	16gg\Jk	16ee-Xi\Jk
.	8.ee-Xi\L	8.cc\L
.	16ff\Jk	16dd\Jk
.	8.dd\L	8.ff\L
.	16ee-Xi\Jk	16gg\Jk
.	8.cc\L	8.ee-Xi\L
!	!LO:TX:t=P:problem:kreska pseudotaktowa	!LO:TX:t=P:problem:kreska pseudotaktowa
.	16dd\Jk	16ff\Jk
=77-	=77-	=77-
.	8.ff\L	8.dd\L
.	16gg\Jk	16ee-Xi\Jk
.	8.ee-Xi\L	8.cc\L
.	16ff\Jk	16dd\Jk
.	1dd	1b-
!LO:TX:t=P:problem:fermata powyżej i poniżej	!	!
[1Fl;;	.	.
.	4cc\	2b-/
.	4b-/	.
=78-	=78-	=78-
0F_	[0ccl;;	[0al;;
=79-	=79-	=79-
0F]	0cc]	0a]
==	==	==
*-	*-	*-
!!!system-decoration: [(s1,s2)]s3
!!!RDF**kern: > = above
!!!RDF**kern: < = below
!!!RDF**kern: i = editorial accidental
!!!RDF**kern: l = terminal long
!!!ENC: Filip Voros
!!!END: 2022-11-04
!!!ENC: Natalia Wrzos
!!!END: 2022-11-19
!!!YEC: Copyright 2022 Narodowy Instytut Fryderyka Chopina (https://polishscores.org)
!!!YEM: License CC-BY-4.0 (https://creativecommons.org/licenses/by/4.0)
